X:1
T:N° 13. Presto, prest0, pria ch’ei venga.
T:[Audiveris detected movement]
T:_
T:N° 13. "Presto, presto, pria ch’ei venga."
T:Finale. Don Giovanni 
T:W.A MOZART
T:L. Da PONTE
C:ﬁﬁ
Z:116
%%score 1 2 ( 3 4 ) { ( 5 7 ) | ( 6 8 ) }
L:1/8
Q:1/4=144
M:4/4
K:C
V:1 treble nm="Z." snm="Z."
V:2 treble nm="G." snm="G."
V:3 bass nm="M." snm="M."
V:4 bass 
V:5 treble nm="Piano"
V:7 treble 
V:6 bass 
V:8 bass 
V:1
"^Allegro assai" x8 | x8 | x8 | x8 | x8 | x8 | x8 | x8 | x8 | x8 | x8 | %11
w: |||||||||||
w: |||||||||||
 z2"^Zerlina. (retains him)" cc BB z2 | z2 ec BB z2 | z2 (Gc) (cB) (Bd) | (dc) (ce) f3 B | %15
w: Sen- ti, sen- ti!|do- ve va- i?|ah * non * t’a- *|scon- * der, * O Ma-|
w: Softly, * softly, *|Why this  hi- ding?|Oh * dear * Ma- *|set- * to, * do not|
 c2 c2 z2 cB | A2 A2 d3 A | B2 B2 z4 | z4 z2 GA | B2 c2 d2 A2 | B2 d4 (cB) | A2 A2 A3 g | %22
w: set- to! se ti|tro- va, po- ve-|ret- to!|tu non|sai quel che può|far, po- ve *|ret- to! tu non|
w: grieve me, Think that|if my lord perceive|* thee,|Sure his|an- ger will be|great, sure his *|an- ger, 0h his|
 (g^f) (ed) (dc) (BA) | G2 x2 x4 | x8 |"^Zerlina." z4 B2 G2 | B2 G2 B2 G2 | B2 G2 x4 | x8 | %29
w: sai * quel * che * può *|far.||(~Ah, non|gio- van le pa-|ro- le!)||
w: an- * ger * will * be *|great.||(All he|wish- es straight he|seiz- es.)||
 z4 d2 B2 | d2 B2 d2 B2 | d2 B2 g2 ^f2 | g2 ^f2 g2 f2 | g2 G2 z4 | z4"^(sotto voce)" z2 GG | %35
w: Che ca-|pric- cio ha nel- 1a|te- sta, che ca-|pric- cio ha nel- la|te- sta?|quell' in-|
w: Do not|bawl so in my|hear- ing, Do not|bawl so in my|hea- ring!|He doth|
 cc z2 z2 =fd | cc z2 z2 GG | c z z2 z fed | c2 z2 z4 | z2 cB cege | cc z2 z4 | z2 cB cege | %42
w: gra- to, quel cru-|de- le, og- gi|vuol pre- ci- pi-|tar;|quell' in- gra- to, quel cru-|de- le,|og- gi vuol pre- ci- pi-|
w: use me most un-|kind- ly, He’s to-|day in sur- 1y|mood,|He doth use me most un-|kindly, *|He’s to- day in sur- ly|
 c2 z2 z4 | z8 | z4 z2 cd | e2 f2 g2 d2 | e2 e2 z4 | z4 z2 cd | e2 f2 g2 B2 | %49
w: tar,||quell’ in-|gra- to,quel * cru-|de- le,|0g- gi|vuol pre- ci pi|
w: mood.||He doth|use me most un-|kind- 1y,|He's to-|day in sur- ly|
 c2"^(Enter Don Giovanni with four gaily dressed servants)" x2 x4 | x8 | x8 | x8 | x8 | x8 | x8 | %56
w: tar.|||||||
w: mood.|||||||
 x8 | x8 | x8 | x8 | x8 | x8 | x8 | x8 | x8 | x8 | x8 | x8 | x8 | x8 | x8 | x8 | x8 | x8 | x8 | %75
w: |||||||||||||||||||
w: |||||||||||||||||||
 x8 | x8 | x8 | x8 | x8 | x8 | x8 | x8 | x8 | x8 | x8 | x8 | x8 | x8 | x8 | x8 || %91
w: ||||||||||||||||
w: ||||||||||||||||
[K:F][M:3/4][Q:1/4=92]"^Andante" x6 |"^ZERLINA (Trying to hide herself.)" z2 z2 de | %93
w: |Tra quest'|
w: |In this|
 f2- f/e/ (d/c/) (=B/c/) (d/c/) | (c>_B) B2{c} B (A/G/) | F3 G AB | GG z2 z2 | x6 | x6 | x6 | %100
w: ar- * * bo- * ri * ee- *|1a- * la. si puo *|dar che non mi|ve- da.||||
w: ar- * * bor * I _ will *|hide _ me, None my *|pres- ence here per-|ceiVing. *||||
 z2 z2"^Zerlina . (trying to escape)." BA | G3 A Bc | ^GA x4 | x6 | z4"^Zerlina." FF | B3 B cd | %106
w: Ah, la-|scia- te- mi an dar|vi- a!||Se pie-|ta de~a- ve- te~in|
w: Ah my|Lord, I'm greatly *|frighten’d! *||If thou’rt|kind, I pray thee,|
 =Bc z4 | x6 | x6 | x6 | x6 | x6 | z2"^Zerlina." A3 c | BG c3 A | BG c3 A | B (c/d/) A2 G2 | %116
w: co- re||||||Ah, s’ei|ve~\- de il spo~~\-- so-|mi- o, sò ben|io quel * che può|
w: 1eave me||||||Ah! how|wouId Ma- set- to|chide me, If thy|ﬂatt- ’ries * I should|
 (A/f/) f/ e/ (e/d/) d/ c/ (c/B/) (B/A/) | (G/d/B/G/) F2 G2 | %118
w: far, _ so ben io, _ sò ben io, _ sò _|quel _ _ _ che può|
w: heed, _ he would chi- de, he would chi- de, if _|thee _ _ _ I could|
 (A/f/) f/ e/ (e/d/) d/ c/ (c/B/) (B/A/) | (G/d/B/G/) F2 G2 | F2 z2 z2 | z6 | z6 | x6 | x6 | z6 | %126
w: far, _ so ben io, _ sò ben io, _ sò _|quel _ _ _ che può|far!||||||
w: heed, _ he would chi- de, he would chi- de, if _|thee _ _ _ I could|heed.||||||
 z6 | z6 | z6 | x6 | x6 | x6 | x6 | x6 | x6 | x6 | x6 | x6 |[M:2/4][Q:1/4=116]"^Allegretto" x4 | %139
w: |||||||||||||
w: |||||||||||||
 x4 | x4 | x4 | x4 | x4 | x4 | z4 | z2"^Zerlina." z c | c =B c B | c c z e | e ^d e d | %150
w: |||||||Si,|si, fac- cia- mo|co re, sì,|sì, fac- cia- mo|
w: |||||||He|means us no un-|kindness, * he|means us no un-|
"^Don Giovanni." ee z g | g^f gf | (g^f) g=f | ed cB | A2 z f | e2 ff | e2 f2 | d2 c2 | c2 z f | %159
w: co re, ed|a bal- lar co-|gli al- tri an-|dia- mo tut- ti|tre, an|dia- mo, an-|dia- mo|tut- ti|tre, an-|
w: kind- ness, Where|mu- sic gay in-|vites * us, Come|let us haste a-|way, Where|mu- sic in-|vites us,|haste a-|way, Where|
 e2 ff | e2 f2 | d2 c2 | c2 z f | gg ee | f2 z f | gg ee | f2 z2 | x4 | x4 | x4 | x4 | x4 | %172
w: dia- mo, an-|dia- mo|tut- ti|tre, an-|dia- mo- tut- ti|tre, an-|dia- mo tut- ti|tre!||||||
w: mu- sic in-|vites us,|haste a-|way, Come|let us haste a-|way, Come|let us haste a-|way!||||||
V:2
 x8 | x8 | x8 | x8 | x8 | x8 | x8 | x8 | x8 | x8 | x8 | x8 | x8 | x8 | x8 | x8 | x8 | x8 | x8 | %19
w: |||||||||||||||||||
w: |||||||||||||||||||
 x8 | x8 | x8 | x8 | x8 | x8 | z8 | z8 | z4 z4 | z8 | z8 | z8 | z8 | z8 | z8 | z8 | z8 | z8 | z8 | %38
w: |||||||||||||||||||
w: |||||||||||||||||||
 z8 | z8 | z8 | z8 | z8 | z8 | z8 | z8 | z8 |[K:bass] z8 | z8 | z2 z2 z4 | z8 | %51
w: |||||||||||||
w: |||||||||||||
"^(Don Giovanni, to the peasants)" z4 G,3 G, | C3 C G,3 G, | C2 D2 z4 | z8 | z4 G,3 G, | %56
w: Sù! sve-|glia- te- vi da|bra- vi!||Su! co-|
w: Come, let|all be mirth and|gladness! *||Deep- ly|
 C3 C G,3 G, | C2 C2 z2 CC | A,2 G,2 A,2 B,2 | C2 C2 z2 CC | A,2 G,2 A,2 B,2 | %61
w: rag- gio, o buo- na|gen- te! vogliam *|sta- re Ie gra-|men- te vo- gliam|ri- de- re, e scher-|
w: quaff the draught of|pleas- ure! Let your|rev- els have 110|meas- ure We will|turn the night to|
 C2"^(to the servants)" G,G, G,G,G,G, | E,E,G,G, D,D,G,G, | E,E,G,G, G,G,G,G, | E,E,G,G, D,D,G,G, | %65
w: zar. Al- la stan- za del- la|dan- za con- du- ce- te tut- ti|quan- ti, ed a tut- ti~a ab bon-|dan- za, gran ri- fre- schi fa- te|
w: day. Those who are for pi- rou-|et- ing, give them mu- sic in the|ball- room, Those whose turn is for co-|quett- ing, in the gar- den 1et them|
 E,2 z2 C3 C | D3 D B,3 B, | %67
w: dar! gran ri-|fre- schi fa- te|
w: stray, gai- ly|pass the time a-|
 C2"_(Don Giovanni, looking cvcrywhcrc for Zerlina,""_at last discovers her,and then gives Leporello a sign""_to take the peasants and servants into the villa)" z2 z4 | %68
w: dar!|
w: way.|
 x8 | x8 | x8 | x8 | x8 | x8 | x8 | x8 | x8 | x8 | x8 | x8 | x8 | x8 | x8 | x8 | x8 | x8 | x8 | %87
w: |||||||||||||||||||
w: |||||||||||||||||||
 x8 | x8 | z8 | z8 ||[K:F][M:3/4] z6 | z6 | x6 | x6 | x6 | z2 z2 G,G, | G,3 .G,{C} B, (A,/G,/) | %98
w: |||||||||Zer- li-|net ta, mia gar- *|
w: |||||||||Sweet Zer|li- na, I'm be- *|
 (C>A,) F,2"^(detains her.)" z2 | z G,/>G,/ A,/>A,/G,/>G,/ A,/>A,/=B,/>B,/ | C2 x4 | x6 | %102
w: ba- * ta.|t'ho già vi- sto, t'ho già vi- sto, non scop-|par.||
w: side * thee.|To escape * a lov- er's glance will ne'er suc-|ceed!||
 z2 z2"^Don" B,"^Giovanni."A, | G,3 A, B,C | ^G,A, z2 x2 | x6 | z2 z2 F,F, | B,3 B, CD | %108
w: No, no,|re- sta, gio- ja|mi- a!||Si, ben|mio, son tut- to~a-|
w: Oh how|fair! with co- lor|heighten‘d! *||All my|heart‘s thine own, be-|
 =B,C"^(Indicating the arbor, which" A,3 C | %109
w: mo- re; vic- ni un|
w: lieve me, To yon|
"^he approaches backwards, drawing Zerlina after him" _B,G, C3 A, | B,G, C3 A, | %111
w: po~\- co~in que- sto|lo- co! for- tu-|
w: ar- bor let me|guide thee, There a|
 B, (C/D/) F,2 G,2 | ^G,A, z2 CC | C E,2 E, F,A, | C E,2 E, F,F, | G, A,/B,/ F,2 E,2 | %116
w: na- ta io ti vo'|far! _ vie~\- ni un|po- * co~in que- sto|lo- * co, for- tu|na- ta io ti vo’|
w: ten- der- * tale I'll|plead, * To yon|ar- * bor let me|guide * thee, There a|ten- der _ tale I'll|
 F,2 z2 F,3/2 F,/ | B,G, C2 C,2 | F,2 z2 F,3/2 F,/ | B, G, C2 C,2 | F,2 z2 z2 | %121
w: far! for- tu-|na- ta io ti vo’|far! for- tu|na- ta~io ti vo’|far!|
w: plead, There a|ten- der tale I'll|plead, There a|ten- der tale I'll|plead.|
"^Masetto, and stands petrified.)""^(Don Giovanni goes towards the arbor, sees" z2 z2 z D, | %122
w: Ma-|
w: Ma|
 A,A, z4 | z6 | z2"^Don Giovanni.(a" z2 z A, |"^little confused)" ^G,3 =B, CA, | %126
w: set- to?||E|chiu- so là, per-|
w: set- to?||So|sur- ly? Where fore|
 ^G,2"^(recovering himself)" z2 z2 | z2 z2 z =G, | G,3 G, G,C | A,2 F,2 z F, | G,3 G, G,C | %131
w: chè?|La|bel- la tua Zer|li- na non|può, la po- ve-|
w: pray?|Zer-|li- na here, is|sigh- ing, Be-|cause the hours are|
 A,2 F,2 z F, | G,3 G, G,C | A,G, G,G, G,2- | G,>A, E,2 TD,>C, | C, x x4 | x6 | %137
w: ri- na, più|star sen- za di|te, non può più star|_ sen- za di _|te.||
w: fly ing. And|thou from her a-|way, andt * ou,and thou|_ from her a- *|way.||
 z"^Don Giovanni." C CC A,F, |[M:2/4] C-C z2 | z2 CC | A,F, z2 | z4 | z2 z G, | CC =B,G, | %144
w: A des- so fa- te|co- re,|fa- te|co- re.||I|suo- na- to- ri~u-|
w: Come, think of no un|kindness, *|no un-|kindness. *||Where|mu- sic gay in-|
 CC z F, | G, G, G, G, | C2 z2 | z4 | z4 | z4 | z2 z C | C2 C2 | C2 z C | B,A, G,G, | F,2 z A, | %155
w: di- te, ve-|ni- te~o- mai con|me!||||Ve-|ni tep-|mai, ve-|ni- te~o- mai con|me, ve-|
w: vites us, We’1l|fro- lic, dance and|p1ay.||||To|mu- sic|gay, Come|let us haste a-|way, Where|
 B,2 A,A, | B,2 A,2 | G,2 G,2 | A,2 z A, | B,2 A,A, | B,2 A,2 | G,2 G,2 | A,2 z A, | B,B, G,G, | %164
w: ni- te, ve-|ni- teo|mai con|me, ve-|ni- te, ve-|ni tqg-|mai con|me, ve-|ni- te~o- maicon *|
w: mu- sic in-|vites us,|haste a-|way, Where|mu sic in|vites us,|haste a-|way, Come|let us haste a-|
 A,2 z A, | B,B, G,G, | F,2 z2 | x4 | x4 | x4 | x4 | x4 | %172
w: me, ve|ni- te~o- mai~con *|me'.||||||
w: way, Come|let us haste a-|way!||||||
V:3
 z4"^Masetto." z2 G,G, | E,E, z2 z2 G,G, | E,E, z2 z2 G,G, | E,2 z G, E,2 z G, | %4
w: Pre- sto,|pre sto, pria ch’ei|venga, * por- mi|vo' da qual- che|
w: Quickly, *|Quickly * I'll out-|wit him In some|nook I'll creep and|
w: ||||
w: ||||
 E,2 E,2"^(pointing at the arbor)" z4 | E,4 A,4 | (G,3 F,) E,2 z2 | z4 C3 C | C2 C,4 D,E, | %9
w: la.- to;|c‘è u- na|nic- * chia|qui ce-|la- * che- to|
w: watch him;|None will|see * me,|I will|watch~him, * Here in|
w: |||||
w: |||||
 (F,2 G,2) (A,2 ^F,2) |"^(going)" G,6 G,2 | C,2 z2 z4 | z8 | z8 | z8 | z8 | z8 | z8 | z8 | z8 | %20
w: che- * to _|mi vo'|star.|||||||||
w: safe- * ty *|I can|wait.|||||||||
w: |||||||||||
w: |||||||||||
 z8 | z8 | z8 | z2 z2"^Masetto. (angrily)" B,2 G,2 | B,2 G,2 B,2 G,2 | B,2 G,2 z4 | z8 | %27
w: |||Fac- cia,|di- ca quel che|vuo- Ie.||
w: |||Let him|say what- e’er he|p1eas- es.||
w: |||||||
w: |||||||
 z4 D2 B,2 | D2 B,2 D2 B,2 | D2 B,2 z4 | z8 | z4 B,2 A,2 | B,2 A,2 B,2 D2 | B,2 G,2 z4 | %34
w: Par- la|for- te, e qui t’ar-|re- sta!||Par- la|for- te,e qui t’ar-|re- sta!|
w: Why, speak|out, what art thou|fear- ing?||Why, speak|out,~ what art thou|fear- ing?|
w: |||||||
w: |||||||
"^(sotto voce)" z2 C,C, B,,2 z2 | z C,C,C, B,,B,, z2 | z2 C,C, B,,B,, z2 | z C,C,C, B,,2 z2 | %38
w: Ca- pi- rò|se m'è fe- de- le,|e~in quaI mo- do|an- dò l'af- far|
w: I must   know|if she would~ blind me,|and my an- ger|shall be sub- dued|
w: ||||
w: ||||
 C,4 F,4 | (E,3 D, C,2) z C, | C,4 F,4 | (E,3 D,) C,2 z2 | z2 C2 C2 C2 | C2 C,4 D,E, | %44
w: Ca- pi-|rò _ _ se|m’e fe-|de- * le,|se m’è fe-|de- le, e~in- qual|
w: I must|know * * if|she would|blind- * me,|Yes I must|know it, And my|
w: ||||||
w: ||||||
 (F,2 G,2) (A,2 ^F,2) | G,6 G,2 | C2 C,4 (D,E,) | (F,2 G,2) (A,2 ^F,2) | G,6 G,2 | %49
w: mo- * do an-|dò l’a|far, in qual *|mo- * do an-|dò l’af-|
w: an- * ger shall|be sub-|dued, yes, my *|an- * ger shall|be sub-|
w: |||||
w: |||||
 C,2"^(Hides in the arbor)" z2 z4 | z8 | z8 | z8 | z8 | z8 | z8 | z8 | z8 | z8 | z8 | z8 | z8 | %62
w: far.|||||||||||||
w: dued,|||||||||||||
w: |||||||||||||
w: |||||||||||||
 z8 | z8 | z8 | z8 | z8 | z8 | z8 |"^TENOR & BASS""^Chorus of Servants" z4 [Gg]3 [Gg] | %70
w: |||||||Sù, sve-|
w: |||||||Come let|
w: ||||||||
w: ||||||||
 [ce]3 [ce] [Gd]3 [Gd] | [Ec]2 [Ec]2 z4 | z8 | z4 [Gg]3 [Gg] | [ce]3 [ce] [Gd]3 [Gd] | %75
w: glia- te- vi da|bra- vi!||Sù! co-|rag- gio, o buo na|
w: all bemirth * and|glad- ness!||Deep- ly|quaff the draught of|
w: |||||
w: |||||
 [Ec]2 [Ec]2 [ce]3 [Bd] | [Ac]3 [GB] [FA]3 [EG] | [DF]2 [DF]2 [Gd]3 [Gd] | [ce]3 [ce] [Gg]3 [Gg] | %79
w: gen te! vo gliam|sta- re al- le- gra-|men- te, vo gliam|ri- de- re, e scher-|
w: pleasure! * 0ur de|lights shall have no|mea- sure, We will|turn the night to|
w: ||||
w: ||||
 [ce]2 z2 [ce]3 [Bd] | [Ac]3 [GB] [FA]3 [EG] | [DF]2 [DF]2 [Gd]3 [Gd] | [ce]3 [ce] [Gg]3 [Gg] | %83
w: zar, Vo- gliam|sta- re al- le- gra-|men- te, vo- gliam|ri- de- re,e scher-|
w: day, Our de-|lights shall have no|mea- sure, We will|turn the night to|
w: ||||
w: ||||
 [ce]2 z2"^(going off.)" [Gd]3 [Gd] | [ce]3 [ce] [Gg]3 [Gg] | [ce]2 z2 [Gd]3 [Gd] | %86
w: zar, vo- gliam|ri- de- re~e scjher-|zar. vo- gliam|
w: day, we will|turn the night to|day, we will|
w: |||
w: |||
 [ce]3 [ce] [Gg]3 [Gg] |"^(exit.)" [ce]2 z2 z4 | [ce]2 z2 [Gd]2 x2 | [ce]2 z2 [Gg]2 z2 | %90
w: ri- de- re, e scher-|zar.|vo- gliam|ri- de-|
w: turn the night to|day,|we will|turn the|
w: ||||
w: ||||
 [ce]2 z2 [Gd]2 z2 ||[K:F][M:3/4] [Ec]2 z2 z2 | z6 | z6 | z6 | z6 | z6 | z6 | z6 | z6 | z6 | z6 | %102
w: re e scher-|zar!|||||||||||
w: night to|day!|||||||||||
w: ||||||||||||
w: ||||||||||||
 z6 | z6 | z6 | z6 | z6 | z6 | z6 | z6 | z6 | z6 | z6 | z6 | z6 | z6 | z6 | z6 | z6 | z6 | z6 | %121
w: |||||||||||||||||||
w: |||||||||||||||||||
w: |||||||||||||||||||
w: |||||||||||||||||||
 z6 | z6 | z4 A,^G, | A,A, z2 z2 | z6 | z6 | z6 | z6 | z6 | z6 | z6 | z6 | z6 | z6 | %135
w: ||Si Ma-|set- to!'|||||||||||
w: ||Yes, Ma-|set- to!|||||||||||
w: ||||||||||||||
w: ||’ *||||||||||||
 z G, G, G, G,2- | G,3/2 A,/ E,2 TD,>C, | C, z z4 |[M:2/4] z4 | z4 | z4 | z4 | z4 | z4 | z4 | z4 | %146
w: Ca- pi- sco, sì,|_ Si * * *|re.|||||||||
w: Your kind- ness would|* I might re- *|pay!|||||||||
w: |||||||||||
w: |||||||||||
 z4 | z4 |"^Masetto." z2 z C | C=B, CB, | CC z _B, | B,A, B,A, | B,A, B,A, | G,F, E,E, | F,2 z F, | %155
w: ||Si,|si, fac- cia- mo|co- re, ed|a bal- lar co-|gli~al- * tri an-|dia- mo tut- ti|tre, an-|
w: ||He|means us no un-|kind- ness, Where|mu- sic gay in-|vites * us, Come|1et us haste a-|way Where|
w: |||||||||
w: |||||||||
 G,2 F,F, | G,2 F,2 | F,2 E,2 | .F,2 z F, | G,2 F,F, | G,2 F,2 | F,2 E,2 | F,2 z D, | B,,B,, C,C, | %164
w: dia- mo, an-|dia- mo|tut- ti|tre, an-|dia- mo, an-|dia- mo|tut- ti|tre, an-|dia- mo tut- ti|
w: mu- sic in-|vites us,|haste a-|way, Where|mu- sic in-|vites us,|haste a-|way, Come|let us haste a-|
w: |||||||||
w: |||||||||
 F,2 z D, | B,,B,, C,C, | F,2 z2 | x4 | x4 | x4 | x4 | x4 | %172
w: tre, an-|dia- mo tut- ti|tre!||||||
w: way, Come|let us haste a-|way!    (Exeunt.)||||||
w: ||||||||
w: ||||||||
V:4
 x8 | x8 | x8 | x8 | x8 | x8 | x8 | x8 | x8 | x8 | x8 | x8 | x8 | x8 | x8 | x8 | x8 | x8 | x8 | %19
w: |||||||||||||||||||
 x8 | x8 | x8 | x8 | x8 | x8 | x8 | x8 | x8 | x8 | x8 | x8 | x8 | x8 | x8 | x8 | x8 | x8 | x8 | %38
w: |||||||||||||||||||
 x8 | x8 | x8 | x8 | x8 | x8 | x8 | x8 | x8 | x8 | x8 | x8 | x8 | x8 | x8 | x8 | x8 | x8 | x8 | %57
w: |||||||||||||||||||
 x8 | x8 | x8 | x8 | x8 | x8 | x8 | x8 | x8 | x8 | x8 | x8 | x8 | x8 | x8 | x8 | x8 | x8 | x8 | %76
w: |||||||||||||||||||
 x8 | x8 | x8 | x8 | x8 | x8 | x8 | x8 | x8 | x8 | x8 | x8 | x8 | x8 | x8 ||[K:F][M:3/4] x6 | x6 | %93
w: |||||||||||||||||
 x6 | x6 | x6 | x6 | x6 | x6 | x6 | x6 | x6 | x6 | x6 | x6 | x6 | x6 | x6 | x6 | x6 | x6 | x6 | %112
w: |||||||||||||||||||
 x6 | x6 | x6 | x6 | x6 | x6 | x6 | x6 | x6 | x6 | x6 | x6 | x6 | x6 | x6 | x6 | x6 | x6 | x6 | %131
w: |||||||||||||||||||
 x6 | x6 | x6 | x6 | x6 | x2 (E,2 D,>C,) | x6 |[M:2/4] x4 | x4 | x4 | x4 | x4 | x4 | x4 | x4 | x4 | %147
w: |||||gno- * *|||||||||||
 x4 | x4 | x4 | x4 | x4 | x4 | x4 | x4 | x4 | x4 | x4 | x4 | x4 | x4 | x4 | x4 | x4 | x4 | x4 | %166
w: |||||||||||||||||||
 x4 | x4 | x4 | x4 | x4 | x4 | %172
w: ||||||
V:5
!p! [G,CE][G,CE][G,CE][G,CE] [G,DG]2 z2 | [G,CE][G,CE][G,CE][G,CE] [G,DG]2 z2 | %2
 [G,CE][G,CE][G,CE][G,CE] [G,DG]2 z2 | z [G,CE] z [G,DG] z [G,CE] z [G,DG] | [G,CE]2 z2 z4 | %5
 (E4 A4) | G3 F [CE]2 z2 |!p! ([ce]4 [fa]4) | ([eg]3 [df]) [ce]2 z2 | z4 z2 (cd) | (e2 f2 g2 B2) | %11
 c2 z2 z2 ([DFB]2 | [CEc]2) z2 z2 ([DFB]2 | [CEc]2) z2 [DFB]2 z2 | [EGc]2 z2!mf!!p! ((([GBdf]4 | %15
 [Gce]2))) .[EG]2 [CE]2 z2 | (^F8 | [G,B,G]2) z2 z4 | z4 z2 (GA | B2 c2 d2 A2) | B2 (d4 cB) | %21
 BA A2 A3 g | (g^fed) (dcBA) | G[B,G][B,G][B,G] [DB][DB][B,G][B,G] | %24
 [DB][DB][B,G][B,G]!f! [DB][DB][B,G][B,G] | ([DB]2 [B,G]) z!p! (BA/B/ [B,G]) z | %26
 (BA/B/ [B,G]) z (BA/B/) [B,G] z | (BA/B/) [B,G] z"_cresc." [Bd][Bd][GB][GB] | %28
 [Bd][Bd][GB]!f![GB] [Bd][Bd][G-B][GB] | ([Bd]2 [GB]) z!p! B2 G z | (dc/d/) B z"_cresc." B2 G x | %31
 (dc/d/"_cresc." B) x5 | [Bg][Bg][A^f][Af] [Bg][Bg][Af][Af] | [Bg][B,DG][B,DG][B,DG] [B,DG]2 z2 | %34
!p! [G,CE][G,CE][G,CE][G,CE] [G,DG]2 z2 | [G,CE][G,CE][G,CE][G,CE] [G,DG]2 z2 | %36
 [G,CE][G,CE][G,CE][G,CE] [G,DG]2 z2 | [G,CE][F,CE][G,CE][G,CE] [G,DG]2 z2 | (E4 A4) | %39
 (G3 F E2) z2 | (E4 A4) | (G3 F) E2 z2 | ([ce]4 [fa]4) | ([eg]3 [df]) [ce]2 z2 | z4 z2 cd | %45
 e2 =f2 g2 d2 | z2 (g4 fe) | ed d2 x4 | c'b.b.g gf.e.d |!f! c2 [egc']4 [egc'][egc'] | %50
 [fgd']2 [fgd'][fgd'] [egc']2 [egc'][egc'] | [dgb]2 Tg/^f/g z2 Tg/f/g | z2 Tg/^f/g z2 Tg/f/g | %53
 z2!f! [egc']4 [egc'][egc'] | [fgd']2 [fgd'][fgd'] [egc']2 [egc'][egd'] | %55
!p! [dgb]2 Tg/^f/g z2 Tg/f/g | z2 Tg/f/^g z2 Tg/f/g | %57
 z!f! [egc'][egc'][egc'] [egc'][egc'][egc'][egc'] | [fa][fa][eg][eg] [fa][fa][db]d | %59
!f! [egd'][egc'][egc'][egc'] [egc'][egc'][egc'][egd'] |!p! [fa][fa][eg][eg] [fa][fa][db][db] | %61
 [ec']2 Tg/^f/g z2 Tg/f/g | z2 Tg/^f/g z2 Tg/f/g | z2 Tg/^f/g z2 (Tg/f/g) | %64
 z2 (Tg/^f/g) z2 (Tg/f/g) | z [eg][eg][ea]"^cresc." [ec'][ec'][ec'][ec'] | %66
 [fd'][fd'][fd'][fd'] [db][db][db][db] |!f! [ec']2 [egc']4 [egc'][egc'] | %68
 [fgd']2 [fgd'][fgd'] [egc']2 [egc'][egc'] | [dgb]2 (Tg/^f/g) z2 (Tg/f/g) | %70
 z2 (Tg/^f/g) z2 (Tg/f/g) | z2 [egc']4 [egc'][egc'] | [=fgd']2 [fgd'][fgd'] [egc']2 [egc'][egc'] | %73
 [db]2 Tg/^f/g z2 T[dg]/f/g | z2 Tg/^f/g z2 Tg/f/g | c2 z3/2 (3(B/4c/4d/4 e3) d | c3 B A3 G | %77
 F2 z2 z2 [dgb]2 | z2 [cegc']2 z2 [dgb]2 | [cegc']2 z3/2 (3B/4c/4d/4 [ee']3 [dd'] | %80
 [cc']3 [Bb] [Aa]3 [Gg] | [Ff]2 z2 z2 [dgb]2 | z2 [cegc']2 z2 [dgb]2 | z3/2 (e/ g7/2) ([Bd]/ g2-) | %84
 g>([ce] g7/2) ([Bd]/ g2) | gceg- gBdg- | gceg gBdg- | gce"^poco"g- gBdg- |"^poco" gceg- gBdg | %89
 gceg- gBdg- | gceg- gBdg ||[K:F][M:3/4]!p! c2 z2 z2 | (g2- g/>a/b/>g/) (de) | (f3 c af) | %94
 (b>g) e2 EE | F (F2 [CG][FA][DG]) | [EG]2 z2 gg | (g2- g/>a/b/>g/) (de) | %98
 f2 z3/2!f! (3(c/4d/4e/4 [cf]/>)[cf]/[Bcg]/>[Bcg]/ | [Aca]!p!Te [fa]T[eg] [fa]f | [ec']C CCCC | %101
 [B,C][B,C][B,C][B,C][B,C][B,C] | [A,C][A,C][A,C][A,C][A,C][A,C] | [B,C][B,C][B,C][B,C][B,C][B,C] | %104
 [A,C][A,CF][A,CF][A,CF][A,CF][A,CF] | z [B,DF][B,DF][B,DF][B,DF][B,DF] | %106
 z [A,CF][A,CF][G,B,F][A,CF][A,CF] | z [B,DF][B,DF][B,DF][B,DF][B,DF] | %108
 [A,CF] z z/ (c'/d'/c'/ b/a/g/f/) | e2 z/ (c'/d'/c'/ b/a/g/f/ | e2) z/ (c'/d'/c'/ b/a/g/f/) | %111
 b[DGB] z [CFA] z [CEG] | ([B,E^G][FA]) z/ (c'/d'/c'/ b/a/=g/f/ | e2) z/ (c'/d'/c'/ b/a/g/f/ | %114
 e2) z/ (c'/d'/c'/ b/a/g/f/) | b[DGB] z [CFA] z [CEG] | (A/f/)(f/e/) (e/d/)(d/c/) (c/B/)(B/A/) | %117
 z [B,DG] z [A,CF] z [CEG] | (A/f/)(f/e/) (e/d/)(d/c/) (c/B/)(B/A/) | z [B,DG] z [A,CF] z [G,CE] | %120
 FAAAAA | AAAAAA | AAAAAA | AAAAA^G | AEEE[CE]E | EEEEEE | EEEEEA | [E^G] [=B,G]2 [B,=G]2 [B,G] | %128
 [CG] (=b/<c'/) (b/<.c'/)b/<c'/ (b/<c'/)(b/<c'/) | a=b/<c'/ (b/<c'/)(b/<c'/) (b/<c'/)(b/<c'/) | %130
 g(=b/<c'/) (b/<c'/)(b/<c'/) (b/<c'/)(b/<c'/) | a(=b/<c'/) (b/<c'/)(b/<c'/) (b/<c'/)(b/<c'/) | %132
 g(=b/<c'/) (b/<c'/)(b/<c'/) (b/<c'/)(b/<c'/) | [ca][=Bg]"^cresc."[cg][dg][eg][fg-] | %134
!p! [eg]>[df] [ce]2 [=Bd]2 | c[fg]"^cresc."[eg][dg][cg][=Bg-] | %136
!p! [cg]>[Adf] [Gce][Gce][F=Bd][FBd] | [Ec]2 z!f! [ceg][cfa][cfa] |[M:2/4] [ceg]2 ._BG | %139
 E.G CD/E/ | F2 .[df].[df] | ([df][=Bd]) .[Fd].[Fd] | ([Fd][D=B]) .[dg].[Bg] | ed/c/ .g.g | %144
 ed/c/ .[fa].[df] | [ce]>[eg]{g} [df][ce]/[=Bd]/ | c!p![Ec][Ec][Ec] | [Ec][^D=B][Ec][DB] | %148
 [Ec][ce][ce][ce] | [ce][=B^d][ce][Bd] | [ce][cg][cg]"^cresc."[cg] | [cg][c^f][cg][cf] | %152
 [cg][c^f][cg][c=f] | [Be][Ad][Gc][GB] |!f! [FA]/F/A/c/ f/c/a/f/ | e/b/g/e/ f/c/a/f/ | %156
 e/b/g/e/ f/d/a/f/ | [dg]/B/[dg]/B/ [Be]/G/[Be]/G/ | f/c/A/c/ f/c/a/f/ | e/b/g/e/ f/c/a/f/ | %160
 e/b/g/e/ f/d/f/a/ | [dg]/B/[dg]/B/ [Be]/G/[Be]/G/ | [Af]/F/[Af]/F/ [Af]/F/[Af]/F/ | %163
 [dg]/B/[dg]/B/ [ce]/G/[ce]/G/ | [fa]/A/[fa]/A/ [fa]/A/[fa]/A/ | [gb]/d/[gb]/d/ [eg]/c/[eg]/c/ | %166
 f/c/A/c/ f/c/f/a/ |"^(Enter Don Octavio, Donna Anna,and Donna Elvira,masked.)" f/c/A/c/ f/c/f/a/ | %168
 f2 z z/ (3(A/4G/4F/4 | E)z/(3(G/4F/4E/4 D)z/(3(F/4E/4D/4 | ^C2)!p! ([eg]2 | [df]2 [^ce]2) | %172
V:6
 C,C,C,C, B,,2 z2 | C,C,C,C, B,,2 z2 | C,C,C,C, B,,2 z2 | C, z B,, z C, z B,, z | C,2 C,2 C,2 C,2 | %5
 C,4 F,4 | (E,3 D,) C,2 z2 | [C,C]4 z4 | [C,C]6 (D,E, | F,2 G,2 A,2) [^F,C]2 | [G,C]4 G,4 | %11
 [CE]2 z2 z2 C,2 | C,2 z2 z2 C,2 | C,2 z2 C,2 z2 | C,2 z2 (C,4 | C,2) .C,2 .C,2 z2 | D,8 | %17
 (G,,6 A,,B,, | C,2 D,2 (E,2) [^C,G,]2) | [D,G,]4 [D,^F,]4 | G,2 B,,4 [A,,C,]D, | E,2 x4 (G,A, | %22
 B,2 C2 D2 ^F,2) | [G,,G,]G,G,G, G,,G,G,,G, | G,,G,G,,G, G,,G,G,,G, | G,,G,G,,G, G,,G,G,,G, | %26
 G,,G,G,,G, G,,G,G,,G, | G,,G,G,,G, G,,G,G,,G, | G,,G,G,,G, G,,G,G,,G, | G,,G,G,,G, G,,G,G,,G, | %30
 G,,G,G,,G, G,,(G,G,,)G, | G,,G,G,,G, G,DD,D | G,DD,D G,DD,D | G,G,,G,,G,, G,,2 z2 | %34
 C,C,C,C, B,,2 z2 | C,C,C,C, B,,2 z2 | C,C,C,C, B,,2 z2 | C,C,C,C, B,,2 z2 | (C,4 F,4) | %39
 (E,3 D,) C,2 z2 | (C,4 F,4) | (E,3 D,) C,2 z2 | C8 | [C,C]6 (D,E, | F,2 G,2 A,2) [^F,C]2 | %45
 [G,C]4 [G,B,]4 | C2 [C,E,]4 [D,F,][E,G,] | [=F,A,]2 G,2 A,2 ^F,2 | E2 F2 G2 B,2 | CG,CG, CG,CG, | %50
 B,G,B,G, CG,E,C, | G,2 z2 [G,B,D]2 z2 | [CE]2 z2 [G,B,D]2 z2 | CG,CG, CG,DG, | B,G,B,G, CG,E,C, | %55
 G,2 z2 [G,B,D]2 z2 | [CE]2 z2 [G,B,D]2 z2 | C,CC,C C,CC,C | C8 | C,DC,C C,CC,C | C8 | %61
 E,G,E,G, F,G,F,G, | E,G,E,G, D,G,D,G, | E,G,E,G, F,G,F,G, | E,G,E,G, D,G,D,G, | %65
 [C,E,]CCC A,,A,A,,A, | F,,F,F,,F, G,,G,G,,G, | CG,CG, CG,CG, | B,G,B,G, CG,E,C, | %69
 G,2 z2 [G,B,D]2 z2 | [CE]2 z2 [G,B,D]2 z2 | CG,CG, CG,CG, | B,G,B,G, CG,E,C, | %73
 G,2 z2 [G,B,D]2 z2 | [CE]2 z2 [G,B,D]2 z2 | C2 z3/2 (3(G,/4A,/4B,/4 [C,C]3) [B,,B,] | %76
 [A,,A,]3 [G,,G,] [F,,F,]3 [E,,E,] | [D,,D,]2 z2 [G,B,DG]2 z2 | [CEG]2 z2 [G,B,DG]2 z2 | %79
 C2 z3/2 (3(G,/4A,/4B,/4 [C,C]3) [B,,B,] | [A,,A,]3 [G,,G,] [F,,F,]3 [E,,E,] | %81
 [D,,D,]2 z2 [G,B,DG]2 z2 | [CG]2 z2 [G,B,DG]2 z2 | [CE]2 z2 [G,,G,]2 z2 | [C,C]2 z2 [G,,G,]2 z2 | %85
 [C,C]2 z2 [G,,G,]2 z2 | [C,C]2 z2 [G,B,D]2 z2 | [CE]2 z2 [G,B,D]2 z2 | [CE]2 z2 [G,B,D]2 z2 | %89
 [CE]2 z2 [G,B,D]2 z2 | [CE]2 z2 [G,B,D]2 z2 ||[K:F][M:3/4] CCCCCC | [_B,C]D[B,C][B,C][B,C][B,C] | %93
 [A,C][A,C][A,C][A,C][A,C][A,C] | [G,C][C,C][E,C][G,C]C[B,C] | [A,C]3 [E,B,][F,A,]B,, | C,C CCCC | %97
 [_B,C][B,C][B,C][B,C][B,C][B,C] | [A,C][A,C][A,C][A,C] A,E, | F,[C,B,][F,A,][C,B,][F,A,][D,G,] | %100
 [C,G,]2 z2 z2 | (([E,,E,]6 | [F,,F,]2)) z2 z2 | [E,,E,]4 z2 | [F,,F,]6- | .[F,,F,]6 | [F,,F,]6 | %107
 [F,,F,]6 | [F,,F,] [F,A,C][F,A,][F,A,C][F,A,C][F,A,C] | %109
 [G,B,C][G,B,C][E,G,B,C][E,G,B,C][F,A,C][F,A,C] | [G,B,C][G,B,C][E,G,B,C][E,G,B,C][F,A,C][F,A,C] | %111
 B,,2 C,2 C,2 | F,2 [F,A,C][F,A,C][F,A,C][F,A,C] | [G,B,C][G,B,C][E,G,B,C][E,G,B,C][F,A,C][F,A,C] | %114
 [G,B,C][G,B,C][E,G,B,C][E,G,B,C][F,A,C][F,A,C] | B,,2 C,2 C,2 | z GFE DC | B,,2 C,2 C,,2 | %118
 z GFE DC | B,,2 C,2 [C,,C,]2 | F,,2 z (^C,D,B,, | A,,2) z (^C,D,B,, | A,,2) z (^C,D,B,, | %123
 A,,2) z (^C,D,B,, | A,,) (A,2 ^G,A,F,) | (E,3 ^G,A,F,) | (E,3 ^G,A,F,) | E,E,E,E,E,E, | %128
 E,2 E,2 E,2 | F,/C/A,/C/ F,/C/A,/C/ F,/C/A,/C/ | E,2 E,2 E,2 | F,/C/A,/C/ F,/C/A,/C/ F,/C/A,/C/ | %132
 E,/C/G,/C/ E,/C/G,/C/ E,/C/G,/C/ | F,[G,,F,][A,,E,][=B,,D,]C,[D,=B,] | [E,C]>[F,A,] G,2 G,,2 | %135
 A,,[=B,,D,][C,E,][D,F,][E,G,][F,G,] | [E,G,]>F, G,2 G,,2 | C,2 z [C,C][F,C][F,C] | %138
[M:2/4] [C,C]2 _B,G, | E,G, C,D,/E,/ | F,2 z2 | G,2 z2 | G,2 =B,G, | (GE) x2 | GE x2 | %145
 G,G, G,,G,, | C,[C,G,][C,G,][C,G,] | [C,G,][C,G,][C,G,][C,G,] | [C,G,][C,G,][C,G,][C,G,] | %149
 [C,G,][C,G,][C,G,][C,G,] | [C,G,][C,E,][C,E,][C,_B,] | [C,B,][C,A,][C,B,][C,A,] | %152
 [C,B,][C,A,][C,B,]!arpeggio![C,A,] | [C,G,][C,F,] [C,E,][C,C] | F,CA,F, | %155
 [C,B,][C,B,][C,A,][C,A,] | [C,B,][C,B,][D,A,][D,A,] | [B,,B,][B,,B,][C,C][C,C] | [F,A,]CA,F, | %159
 [C,B,][C,B,][C,A,][C,A,] | [C,B,][C,B,][D,A,][D,A,] | [B,,B,][B,,B,] [C,C][C,C] | %162
 F,F, [D,D][D,D] | [B,,B,][B,,B,] [C,C][C,C] | [F,C][F,C] !arpeggio![D,D][D,D] | %165
 [B,,B,][B,,B,] [C,C][C,C] | [F,A,]2 [F,A,][F,A,] | [F,A,]2 [F,A,][F,A,] | [F,A,]2 F,2 | E,2 D,2 | %170
 ^C,2 z2 | [A,,A,]4 | %172
V:7
 x8 | x8 | x8 | x8 | x8 | C8- | C4 x4 | x8 | x8 | x8 | x8 | x8 | x8 | x8 | x8 | x8 | [A,C]8 | x8 | %18
 x8 | x8 | B2 z2 G4 | G4 x4 | x8 | x8 | x8 | x4 D2 x2 | D2 x2 D2 x2 | D2 x6 | x8 | x4 (dc/d/ B) x | %30
 B2 G x (dc/d/ B) z | B2 G z [Bg][Bg][A^f][Af] | x8 | x8 | x8 | x8 | x8 | x8 | C8 | C2 B,2 C2 B,2 | %40
 C8 | C2 B,2 C2 B,2 | x8 | x8 | x8 | x8 | e2 G2 c4 | [ce]4 d3 c' | x8 | x8 | x8 | x8 | x8 | x8 | %54
 x8 | x8 | x8 | x8 | x8 | x8 | x8 | x8 | x8 | x8 | x8 | x8 | x8 | x8 | x8 | x8 | x8 | x8 | x8 | %73
 x8 | x8 | x8 | x8 | x8 | x8 | x8 | x8 | x8 | x8 | x8 | x8 | x8 | x8 | x8 | x8 | x8 | x8 || %91
[K:F][M:3/4] x6 | x6 | x6 | x6 | x6 | x6 | x6 | x6 | x g/f/4g/4 x g/f/4!arpeggio!g/4 x =b/a/4b/4 | %100
 x6 | x6 | x6 | x6 | x6 | x6 | x6 | x6 | x6 | x6 | x6 | x6 | x6 | x6 | x6 | x6 | FB AG FF | x6 | %118
 x2 AG FF | x6 | A, z z EFD | ^C2 z E[FA]D | ^C2 z E[FA]D | ^C2 z E[FA]D | ^C =C2 =B,CA, | %125
 ^G,3 =B,[CE]A, | ^G,2 z =B,C^D | x6 | x6 | x6 | x6 | x6 | x6 | x6 | x6 | x6 | x6 | x6 | %138
[M:2/4] x4 | x4 | x4 | x4 | x4 | x4 | x4 | x4 | x4 | x4 | x4 | x4 | x4 | x4 | x4 | x4 | x4 | x4 | %156
 x4 | x4 | x4 | x4 | x4 | x4 | x4 | x4 | x4 | x4 | x4 | x4 | x4 | x4 | x4 | x4 | %172
V:8
 x8 | x8 | x8 | x8 | x8 | x8 | x8 | x8 | x8 | x8 | x4 [B,D]2 [DF]2 | x8 | x8 | x8 | x8 | x8 | x8 | %17
 x8 | x8 | x8 | (G,,6 A,,B,, | =C,2 D,2 E,2 ^C,2) | D,8 | x8 | x8 | x8 | x8 | x8 | x8 | x8 | x8 | %31
 x8 | x8 | x8 | x8 | x8 | x8 | x8 | x8 | x8 | x8 | x8 | C,8 | x8 | x8 | x8 | x8 | x6 CD | G,4 G,4 | %49
 x8 | x8 | x8 | x8 | x8 | x8 | x8 | x8 | x8 | C,8 | x8 | C,8 | C,4 [B,,D,]4 | C,4 [G,,B,,]4 | %63
 C,4 [B,,D,]4 | C,4 [G,,B,,]4 | x8 | x8 | x8 | x8 | x8 | x8 | x8 | x8 | x8 | x8 | x8 | x8 | x8 | %78
 x8 | x8 | x8 | x8 | x8 | x8 | x8 | x8 | x8 | x8 | x8 | x8 | x8 ||[K:F][M:3/4] x6 | x6 | x6 | x6 | %95
 x6 | x6 | x6 | x6 | x6 | x6 | x6 | x6 | x6 | x6 | x6 | x6 | x6 | x6 | x6 | x6 | x6 | x6 | x6 | %114
 x6 | x6 | F,2 z2 F,2 | x6 | F,2 z2 F,2 | x6 | x6 | x6 | x6 | x6 | x6 | x6 | x6 | x6 | %128
 E,/C/G,/C/ E,/C/G,/C/ E,/C/G,/C/ | x6 | E,/C/G,/C/ E,/C/G,/C/ E,/C/G,/C/ | x6 | x6 | x6 | x6 | %135
 x6 | x6 | x6 |[M:2/4] x4 | x4 | x4 | x4 | x4 | C2 [=B,D][G,B,] | C2 F,F, | x4 | x4 | x4 | x4 | %149
 x4 | x4 | x4 | x4 | x4 | x4 | x4 | x4 | x4 | x4 | x4 | x4 | x4 | x4 | x4 | x4 | x4 | x4 | x4 | %168
 x4 | x4 | x4 | x4 | %172

